X:1
T: The Weaver and his Wife
C:
R:Jig
Q:180
K:A
M:6/8
L:1/16
F2|:E4E2 E2A2B2|c6 A6|c6 A4c2|e2d2c2 B6|
E4E2 E2B2c2|d6 B6|E4e2 d2c2B2|A6 A4F2:|
|:E2A2c2 e6|E2A2B2 c6|E2A2c2 e2d2c2|d6-d2B2c2|d2e2d2 B2d2B2|
|1G6 F6|E4e2 d2c2B2|A6 A4F2:|2G4E2 F4D2|E4e2 d2c2B2|A6 A4||
